components/ui-node-icon/src/nest/nest.large.svg

<svg width="32" height="32" viewBox="0 0 32 32" fill="none" xmlns="http://www.w3.org/2000/svg">
  <path d="M6.5 6H10.5H25C26.1046 6 27 6.89543 27 8V13.5858C27 13.851 27.1054 14.1054 27.2929 14.2929L28.5 15.5L27.2929 16.7071C27.1054 16.8946 27 17.149 27 17.4142V24C27 25.1046 26.1046 26 25 26H10.5H6.5C5.39543 26 4.5 25.1046 4.5 24V17.4142C4.5 17.149 4.39464 16.8946 4.20711 16.7071L3 15.5L4.20711 14.2929C4.39464 14.1054 4.5 13.851 4.5 13.5858V8C4.5 6.89543 5.39543 6 6.5 6Z" fill="var(--tbl--colors--icons--clean--secondary)"/>
  <path fill-rule="evenodd" clip-rule="evenodd" d="M7.49997 4C8.05226 4 8.49997 4.44772 8.49997 5C8.49997 5.55228 8.05226 6 7.49997 6H6.49997C5.94769 6 5.49997 6.44772 5.49997 7V13.5858C5.49997 14.1162 5.28926 14.6249 4.91418 15L4.41418 15.5L4.91418 16C5.28926 16.3751 5.49997 16.8838 5.49997 17.4142V25C5.49997 25.5523 5.94769 26 6.49997 26H7.49997C8.05226 26 8.49997 26.4477 8.49997 27C8.49997 27.5523 8.05226 28 7.49997 28H6.49997C4.84312 28 3.49997 26.6569 3.49997 25V17.4142L2.99997 16.9142C2.21892 16.1332 2.21892 14.8668 2.99997 14.0858L3.49997 13.5858V7C3.49997 5.34315 4.84312 4 6.49997 4H7.49997ZM24 4C23.4477 4 23 4.44772 23 5C23 5.55228 23.4477 6 24 6H25C25.5523 6 26 6.44772 26 7V13.5858C26 14.1162 26.2107 14.6249 26.5858 15L27.0858 15.5L26.5858 16C26.2107 16.3751 26 16.8838 26 17.4142V25C26 25.5523 25.5523 26 25 26H24C23.4477 26 23 26.4477 23 27C23 27.5523 23.4477 28 24 28H25C26.6568 28 28 26.6569 28 25V17.4142L28.5 16.9142C29.281 16.1332 29.281 14.8668 28.5 14.0858L28 13.5858V7C28 5.34315 26.6568 4 25 4H24Z" fill="var(--tbl--colors--icons--clean--primary)"/>
</svg>

<svg xmlns="http://www.w3.org/2000/svg" width="32" height="32" fill="none" viewBox="0 0 32 32">
  <path fill="var(--tbl--colors--icons--clean--secondary)" d="M6.5 6H25a2 2 0 0 1 2 2v5.586a1 1 0 0 0 .293.707L28.5 15.5l-1.207 1.207a1 1 0 0 0-.293.707V24a2 2 0 0 1-2 2H6.5a2 2 0 0 1-2-2v-6.586a1 1 0 0 0-.293-.707L3 15.5l1.207-1.207a1 1 0 0 0 .293-.707V8a2 2 0 0 1 2-2Z"/>
  <path fill="var(--tbl--colors--icons--clean--primary)" fill-rule="evenodd" d="M7.5 4a1 1 0 1 1 0 2h-1a1 1 0 0 0-1 1v6.586A2 2 0 0 1 4.914 15l-.5.5.5.5a2 2 0 0 1 .586 1.414V25a1 1 0 0 0 1 1h1a1 1 0 1 1 0 2h-1a3 3 0 0 1-3-3v-7.586l-.5-.5a2 2 0 0 1 0-2.828l.5-.5V7a3 3 0 0 1 3-3h1ZM24 4a1 1 0 1 0 0 2h1a1 1 0 0 1 1 1v6.586A2 2 0 0 0 26.586 15l.5.5-.5.5A2 2 0 0 0 26 17.414V25a1 1 0 0 1-1 1h-1a1 1 0 1 0 0 2h1a3 3 0 0 0 3-3v-7.586l.5-.5a2 2 0 0 0 0-2.828l-.5-.5V7a3 3 0 0 0-3-3h-1Z" clip-rule="evenodd"/>
</svg>
